X: 127
T: No_61_Song_of_a_Black_Horse.krn
N: Derived from No_61_Song_of_a_Black_Horse.krn
%%abc-version 2.0
%%abcx-abcm2ps-target-version 5.9.1 (29 Sep 2008)
%%abc-creator hum2abc beta
%%abcx-conversion-date 2019/03/15 08:37:56
%%humdrum-veritas 2351119768
%%humdrum-veritas-data 3790928066
%%linebreak <none>
%%barnumbers 0
L: 1/4
M: 2/4
K: B clef=bass
[K:clef=bass][M:2/4]G,C | 
CB, ||  
[M:3/4]B,G,/F,/F, ||  
[M:2/4]CC | 
B,B, | 
G,2 | 
F,F,/D,/ | 
G,G, | 
F,F,/D,/ ||  
[M:3/4]F,2D, ||  
[M:2/4]C,z | 
B,3/G,/ | 
B,B, | 
G,D, ||  
[M:3/4]F,F,/D,/F, | 
F,2F, | 
F,3 ||  
[M:2/4]F,F, | 
CC | 
B,B, | 
G,/F,/F, | 
C/C/C | 
B,B, | 
G,G, | 
F,3/D,/ | 
G,G, | 
F,F, | 
D,/C,/ C,/ z/ ||  
[M:3/4]F,F,/D,/F, | 
F,2F, | 
F,3 |]  



